X:83
T:83. RH Pocket: Upward Arpeggio
T:Use to fill gaps between LH beats — flowing upward
C:RH ascending 1358 eighths; LH root anchor
M:4/4
L:1/8
Q:1/4=100
%%score {V1 V2}
V:V1 clef=treble
V:V2 clef=bass
K:C
[V:V1] "C" c e g c' c e g c' | "F" f a c' f' f a c' f' | "G" g b d' g' g b d' g' | "C" c e g c' c e g c' |]
[V:V2] C,8 | F,8 | G,8 | C,8 |]

